X:1
T: Colin Lander's Reel
C:Muriel A Johnstone
R:Reel
Q: 232
K:D
M:4/4
L:1/8
|:A,2|D2 FD AD BD|A2 BA GF ED|C2 A,C EA, FA,|E2 F^G A2 Bc|
d2 Fd c2 Ec|B2 DB AF ED|EF GE AG FE|D2 D2 D2:|
|:e2|f2 df e2 ce|d2 Bd cA F2|B2 GB A2 DF|EF GA Bc de|
fa df ea ce|dB ed ce Ac|Bd GB Ad fa|ge af d2:|
